!!!OTL: Der geistliche Buchsbaum. /c. Politische Parodie. 1629. (Text Hildebrand, Hist. BL. No. 50. )
!!!ARE: Europa, Mitteleuropa, Deutschland
!!!SCT: A0654C
!!!TXL: @@DE
!!!YEM: Copyright 1995, estate of Helmut Schaffrath.
**kern	**text
*M3/1	*
*met(C3)	*
*clefC1	*
*k[]	*
*G:	*
=1	=1
1ryy	.
1ryy	.
{1g	Nun
=2	=2
0g	hö-
1g	-ret
=3	=3
0a	ʒu
1b	ihr
=4	=4
0cc	Chri-
1cc	-ſten
=5	=5
0a}	Leut,
{1b	Wie
=6	=6
0cc	Arnheimb
1cc	.
=7	=7
0b	ge-
1b	-gen
=8	=8
0a	Stralſundt
1a	.
=9	=9
0a}	ſtreit,
{1a	All-
=10	=10
0g	-hier
1g	in
=11	=11
!LO:TX:a:t=..	!
0g	Pommern
1e	in
=12	=12
!LO:SIC:o:2f:v	!
0f#	die-
1g	-ſer
=13	=13
0a}	Ʒeit,
{1b	Ha-
=14	=14
0cc	-bens
1cc	ein
=15	=15
!LO:TX:a:t=..	!
0b	vnnö-
1b	-thig
=16	=16
0.a	Krie-
=17	=17
0g}	-gen,
{1b	Keins
=18	=18
0cc	wil
1cc	vorm
=19	=19
0b	an-
1cc	-dern
=20	=20
0.a	flie-
=21	=21
0.g\ll}	-hen.
==	==
!!!GTL: Geistliche Volkslieder
!!!AGN: Romanze, Ballade, Lied, religioeses Lied
!! M. Praetorius, Mus. Sion. VII. 1609 no. 194
!!!ONB: ESAC (Essen Associative Code) Database: ALTDEU
!!!AMT: simple triple
!!!AIN: vox
!!!EED: Helmut Schaffrath
!!!EEV: 1.0
!!!RDF**kern: l = terminal long
!!!URL-scan: https://rosdok.uni-rostock.de/mcrviewer/recordIdentifier/rosdok_ppn738218359/iview2/phys_0834.iview2?x=-495.6391625615763&y=1159.1088669775054&scale=0.4629418472063854&rotation=0&layout=singlePageLayout
!!!ENC: Anna Maria Matuszewska
!!!EEV: 2024/26/03
*-	*-
